static/images/mobile/copyright/wikipedia-tagline-dty.svg

<?xml version="1.0" encoding="UTF-8"?>
<svg width="120px" height="17px" viewBox="0 0 120 17" version="1.1" xmlns="http://www.w3.org/2000/svg" xmlns:xlink="http://www.w3.org/1999/xlink">
    <title>wikipedia-tagline-dty</title>
    <g id="Page-1" stroke="none" stroke-width="1" fill="none" fill-rule="evenodd">
        <path d="M6.31578986,5.26315559 L6.31578986,8.16285736 C6.31578986,8.69248651 6.20986473,9.16252906 5.99801447,9.57298501 C5.7927844,9.97682916 5.50149011,10.2284027 5.12413161,10.3277055 L4.52830197,9.63257511 C5.05792832,9.48692674 5.3227415,8.99040204 5.3227415,8.14300099 L5.3227415,5.26315559 L1.94637559,5.26315559 L1.94637559,9.03674756 C1.94637559,9.58623308 2.11188383,10.0165524 2.4429003,10.3277055 L5.9185701,13.6047623 C6.44819645,14.1012905 6.71300963,14.4985123 6.71300963,14.7964279 C6.71300963,15.4253599 6.31579021,15.8887801 5.52135138,16.1866886 L4.72691185,15.4915583 C5.3227408,15.3988742 5.62065527,15.1671641 5.62065527,14.7964279 C5.62065527,14.5779588 5.48824903,14.3462452 5.22343656,14.101287 L1.54915687,10.7249274 C1.15193711,10.3608099 0.953327227,9.81132442 0.953327227,9.0764708 L0.953327227,5.26315559 L0,5.26315559 L0,4.36941952 L19.2055612,4.36941952 L19.2055612,5.26315559 L13.4657404,5.26315559 L13.4657404,7.94439531 C13.9225426,7.14995158 14.6176764,6.75272971 15.5511421,6.75272971 C16.2131743,6.75272971 16.7593511,7.01754429 17.1896725,7.54717344 C17.6199933,8.07017681 17.8351536,8.6991053 17.8351536,9.43395893 C17.8351536,10.751406 17.206223,11.9430646 15.9483618,13.0089347 L15.0546174,12.4131072 C16.2462759,11.5590873 16.8421052,10.5660379 16.8421052,9.43395893 C16.8421052,8.99040204 16.7229394,8.59980596 16.4846077,8.2621707 C16.2462759,7.91790965 15.9351207,7.74577913 15.5511421,7.74577913 C15.0678584,7.74577913 14.6342273,7.92452844 14.2502486,8.28202707 C13.8728901,8.6395257 13.6113874,9.08970838 13.4657404,9.63257511 L13.4657404,14.2999032 L12.472691,14.2999032 L12.472691,11.3207549 C11.9629259,11.916586 11.3008936,12.2145015 10.4865942,12.2145015 C9.77159909,12.2145015 9.16252906,11.962928 8.65938417,11.459781 C8.15623997,10.956634 7.90466787,10.3475654 7.90466787,9.63257511 C7.90466787,8.81827501 8.19265171,8.1363822 8.76861939,7.58689668 C9.35120796,7.03078537 10.0562725,6.75272971 10.883813,6.75272971 C11.3869579,6.75272971 11.7179743,6.81893511 11.8768624,6.95134589 L11.6782525,7.94439531 C11.4399208,7.81198452 11.1751076,7.74577913 10.883813,7.74577913 C10.3409469,7.74577913 9.87421413,7.92783784 9.48361455,8.29195525 C9.09301567,8.65607267 8.89771624,9.10294596 8.89771624,9.63257511 C8.89771624,10.076132 9.04998374,10.4534905 9.35451876,10.7646506 C9.66567396,11.0691849 10.0430325,11.2214521 10.4865942,11.2214521 C10.9036746,11.2214521 11.2777226,11.1155269 11.6087384,10.9036767 C11.9397549,10.6852076 12.2277391,10.3608099 12.472691,9.93048364 L12.472691,5.26315559 L6.31578986,5.26315559 Z M46.0973198,5.26315559 L46.0973198,14.2999032 L45.1042714,14.2999032 L45.1042714,8.14300099 L41.2313818,8.14300099 C40.9136064,8.14300099 40.6521037,8.27209539 40.4468736,8.53028417 C40.2416436,8.78186117 40.1390285,9.08308609 40.1390285,9.43395893 C40.1390285,10.1026177 40.3541889,10.784514 40.7845096,11.4796479 C41.214831,12.1747817 41.8603128,12.8831532 42.7209549,13.6047623 L42.1251253,14.2999032 C41.1320765,13.4591209 40.3872902,12.6348891 39.8907662,11.8272078 C39.3942415,11.0129077 39.1459791,10.2151581 39.1459791,9.43395893 C39.1459791,8.81165272 39.344589,8.27540828 39.7418088,7.8252256 C40.1390278,7.37504292 40.6355522,7.14995158 41.2313818,7.14995158 L45.1042714,7.14995158 L45.1042714,5.26315559 L37.0208532,5.26315559 L37.0208532,14.2999032 L36.0278048,14.2999032 L36.0278048,11.1221492 C35.4783179,11.7841822 34.7831836,12.1151986 33.9424021,12.1151986 C33.1214818,12.1151986 32.4197274,11.8603158 31.8371388,11.35055 C31.2545502,10.8407842 30.9632559,10.2019205 30.9632559,9.43395893 C30.9632559,8.66600436 31.2545502,8.02714418 31.8371388,7.51737839 C32.4197274,7.00761261 33.1214818,6.75272971 33.9424021,6.75272971 C34.4323059,6.75272971 34.862627,6.885137 35.2333653,7.14995158 L34.7368416,7.94439531 C34.4852688,7.74578262 34.2204556,7.64647628 33.9424021,7.64647628 C33.4061562,7.64647628 32.9394234,7.81860331 32.5422037,8.16285736 C32.1516048,8.50711841 31.9563054,8.93081893 31.9563054,9.43395893 C31.9563054,9.91724256 32.1516048,10.3210832 32.5422037,10.6454809 C32.9394234,10.9632598 33.4061562,11.1221492 33.9424021,11.1221492 C34.3528622,11.1221492 34.7302207,10.9996736 35.0744776,10.7547224 C35.4253546,10.5031454 35.7431304,10.1290963 36.0278048,9.63257511 L36.0278048,5.26315559 L27.3088379,5.26315559 L27.3088379,7.94439531 C27.3088379,8.45415409 27.1466401,8.89771449 26.8222445,9.27507648 C26.4978482,9.64581269 26.0973184,9.8311808 25.6206549,9.8311808 C25.3161199,9.8311808 25.0910289,9.77159769 24.9453819,9.65243148 C25.3955639,10.3806663 25.9086391,11.0758002 26.4846075,11.7378331 C27.0671961,12.3932473 27.7126778,13.015557 28.4210528,13.6047623 L27.8252231,14.2999032 C26.759351,13.4061566 25.802714,12.4064884 24.9553122,11.3008985 C24.1145314,10.1886829 23.3829857,8.97054217 22.7606753,7.64647628 L23.6544188,7.14995158 C23.8993707,7.74578262 24.1608734,8.19265591 24.438927,8.49057143 C24.7169805,8.78847996 25.0115852,8.93743422 25.3227411,8.93743422 C25.6074149,8.93743422 25.8424362,8.84475017 26.027805,8.65938207 C26.2197947,8.46739517 26.3157895,8.22906625 26.3157895,7.94439531 L26.3157895,5.26315559 L22.5223433,5.26315559 L22.5223433,4.36941952 L62.2244288,4.36941952 L62.2244288,5.26315559 L60.0397222,5.26315559 L60.0397222,14.2999032 L59.0466738,14.2999032 L59.0466738,10.6256245 L55.471698,13.0089347 L54.9751744,12.2145015 L58.5700097,9.8311808 C57.6431643,8.90433328 56.9083085,8.44090952 56.3654425,8.44090952 C55.6173457,8.44090952 54.9222115,8.70572409 54.2800398,9.23535325 L53.882,8.704 L53.882819,8.73882854 L50.8043679,8.73882854 C50.4071481,8.73882854 50.2085382,8.87123583 50.2085382,9.1360504 L50.2085382,10.2284027 C50.2085382,10.625621 50.076132,10.8242302 49.8113195,10.8242302 C49.5134047,10.8242302 49.1228055,10.4932137 48.6395218,9.8311808 C48.1628584,9.16914785 47.9245267,8.67262315 47.9245267,8.34160668 C47.9245267,8.0105902 48.1562382,7.84508197 48.6196613,7.84508197 L53.882819,7.84508197 L53.882,8.285 C54.6348711,7.72601344 55.4612164,7.4478706 56.3654425,7.4478706 C57.093678,7.4478706 57.9874218,7.97749625 59.0466738,9.03674756 L59.0466738,5.26315559 L46.0973198,5.26315559 Z M30.6852038,8.54022285 L30.6852038,9.53327227 L28.0039725,9.53327227 L27.5074478,8.54022285 L30.6852038,8.54022285 Z M120,4.36941952 L120,5.26315559 L118.093348,5.26315559 L118.093348,7.54717344 C118.093348,8.14962328 117.891426,8.66600785 117.487581,9.09632717 C117.090363,9.52002769 116.597148,9.73187795 116.007935,9.73187795 C115.835812,9.73187795 115.571001,9.66567606 115.213502,9.53327227 C115.637203,10.2747447 116.137037,10.986429 116.713005,11.6683254 C117.295591,12.3435959 117.954315,12.9890749 118.689175,13.6047623 L118.093348,14.2999032 C117.027471,13.4061566 116.070831,12.4064884 115.22343,11.3008985 C114.382648,10.1886829 113.651104,8.97054217 113.028798,7.64647628 L113.922534,7.14995158 C114.094664,7.62661642 114.369411,8.0105937 114.746773,8.30188344 C115.130746,8.59318017 115.551134,8.73882854 116.007935,8.73882854 C116.319096,8.73882854 116.577291,8.62297173 116.782523,8.3912581 C116.994373,8.15292568 117.100298,7.87156413 117.100298,7.54717344 L117.100298,5.26315559 L111.221448,5.26315559 L111.221448,14.2999032 L110.228399,14.2999032 L110.228399,5.26315559 L107.229394,5.26315559 L107.229394,14.2999032 L106.236345,14.2999032 L106.236345,5.26315559 L104.349559,5.26315559 L104.349559,9.43395893 C104.349559,10.1158552 104.131087,10.7017546 103.694142,11.191657 C103.257204,11.6749406 102.714337,11.9165825 102.065541,11.9165825 C101.390271,11.9165825 100.824235,11.6749406 100.367433,11.191657 C99.910632,10.7083734 99.6822313,10.122474 99.6822313,9.43395893 L99.6822313,5.26315559 L97.2393205,5.26317658 L97.2393205,14.2999241 L96.2462815,14.2999241 L96.2462815,10.029818 L92.9692164,10.029797 L92.9692164,10.8242302 C92.9692164,11.0890448 92.8037081,11.2214521 92.4726917,11.2214521 C92.2608414,11.2214521 91.9099644,10.9765009 91.4200606,10.4865984 C90.9301567,9.99668903 90.6852048,9.64580919 90.6852048,9.43395893 C90.6852048,9.30155514 90.7249267,9.2022523 90.8043703,9.1360504 C90.8904342,9.0698625 91.0162203,9.03676855 91.1817285,9.03676855 L91.976168,9.03676855 L91.976168,6.15692315 C91.976168,5.878871 91.8901038,5.64384797 91.7179754,5.45185408 C91.5524671,5.25986719 91.3406165,5.16387374 91.0824235,5.16387374 C90.8440918,5.16387374 90.6355517,5.23007564 90.456803,5.36247943 C90.2780544,5.48827142 90.1886801,5.65377966 90.1886801,5.85900413 C90.1886801,6.12381871 90.2615036,6.32243139 90.4071506,6.45484218 C90.5594184,6.58724597 90.7845094,6.65344786 91.0824235,6.65344786 L91.0824235,7.64649727 C90.5660383,7.64649727 90.1224768,7.47437025 89.7517392,7.1301162 C89.3810009,6.78585515 89.1956318,6.36215113 89.1956318,5.85900413 C89.1956318,5.64516515 89.2329394,5.44664821 89.3075547,5.2634533 L87.4280055,5.26315559 L87.4280055,14.2999032 L86.4349571,14.2999032 L86.4349571,8.83813138 L83.5551159,8.83813138 C83.1578962,8.83813138 82.9592863,8.97053867 82.9592863,9.23535325 L82.9592863,10.2284027 C82.9592863,10.625621 82.7937784,10.8242302 82.4627626,10.8242302 C82.2111898,10.8242302 81.8172805,10.4799727 81.2810347,9.79145756 C80.7447881,9.10294246 80.4766648,8.61965883 80.4766648,8.34160668 C80.4766648,8.0105902 80.7083764,7.84508197 81.1717994,7.84508197 L86.4349571,7.84508197 L86.4349571,5.26315559 L78.6891727,5.26315559 L78.6891727,14.2999032 L77.6961244,14.2999032 L77.6961244,5.26315559 L74.7169782,5.26315559 L74.7169782,14.2999032 L73.7239299,14.2999032 L73.7239299,7.64647628 L67.9642475,7.64647628 C67.6332317,7.64647628 67.4677238,7.74578262 67.4677238,7.94439531 C67.4677238,8.22906625 67.6464724,8.58325199 68.0039697,9.00695251 C68.3680878,9.42403424 68.6858635,9.63257511 68.9572969,9.63257511 C69.1757673,9.63257511 69.4902326,9.56636972 69.9006928,9.43395893 C70.3177731,9.30155514 70.6322384,9.23535325 70.8440887,9.23535325 C71.1751051,9.23535325 71.4399183,9.39755209 71.6385282,9.72194977 C71.8371374,10.0463405 71.936442,10.4137673 71.936442,10.8242302 C71.936442,11.5193641 71.6484581,12.0920224 71.0724905,12.5422051 C70.5031423,12.985769 69.8311794,13.2075509 69.0566018,13.2075509 C69.3081739,13.7636552 69.9371045,14.1277726 70.9433936,14.2999032 L70.2482601,14.9950335 C69.334655,14.7368448 68.6064192,14.273421 68.0635524,13.6047623 C67.5736486,13.6047623 67.1367074,13.4855996 66.7527287,13.2472741 C66.36875,13.0089417 66.1767606,12.6977851 66.1767606,12.3138043 C66.1767606,12.0622343 66.2628248,11.8503841 66.4349533,11.6782535 C66.6070817,11.506123 66.818932,11.4200578 67.0705041,11.4200578 C67.3816593,11.4200578 67.845082,11.7841752 68.4607722,12.51241 C69.109564,12.4527989 69.6855324,12.2707402 70.1886773,11.9662339 C70.6918215,11.6550808 70.9433936,11.2744129 70.9433936,10.8242302 C70.9433936,10.3608099 70.7778857,10.1290998 70.44687,10.1290998 C70.3078432,10.1290998 70.0562707,10.1953017 69.6921526,10.3277055 C69.3346554,10.4601163 69.0566018,10.5263217 68.857992,10.5263217 C68.40781,10.5263217 67.8980449,10.2085428 67.3286967,9.57298501 C66.7593492,8.93743422 66.4746755,8.3879487 66.4746755,7.92452844 C66.4746755,7.55379223 66.6203224,7.24925792 66.9116164,7.0109255 C67.2029103,6.77259308 67.5537873,6.65342687 67.9642475,6.65342687 L73.7239299,6.65342687 L73.7239299,5.26315559 L65.5412088,5.26315559 L65.5412088,4.36941952 L89.6127131,4.36941952 L89.610749,4.79401528 C89.6543164,4.74707538 89.7013131,4.70154391 89.7517392,4.65742085 C90.129097,4.33302317 90.5726585,4.17082433 91.0824235,4.17082433 C91.6120499,4.17082433 92.0589218,4.36612412 92.4230392,4.75672369 C92.7871573,5.14732327 92.9692164,5.61405642 92.9692164,6.15692315 L92.9692164,9.03676855 L96.2462815,9.03676855 L96.2462815,5.26317658 L93.6643552,5.26317658 L93.6643552,4.36944051 L120,4.36941952 Z M103.35651,5.26315559 L100.675281,5.26315559 L100.675281,9.43395893 C100.675281,9.83780308 100.807684,10.1886829 101.072492,10.4865984 C101.343925,10.7778882 101.674942,10.9235331 102.065541,10.9235331 C102.436278,10.9235331 102.744125,10.7778882 102.989083,10.4865984 C103.234034,10.1953017 103.35651,9.84442187 103.35651,9.43395893 L103.35651,5.26315559 Z M100.059586,0.794443729 C99.9271755,1.56901709 99.5862273,2.21118667 99.0367418,2.72095245 C98.4806375,3.22409945 97.8285362,3.47567295 97.080438,3.47567295 C96.3323398,3.47567295 95.6835479,3.22409945 95.1340624,2.72095245 C94.5779581,2.21118667 94.2337006,1.56901709 94.1012898,0.794443729 L95.0943392,0.794443729 C95.1870232,1.33068467 95.4187334,1.78086386 95.7894696,2.14498128 C96.153587,2.5024799 96.5839098,2.68122922 97.080438,2.68122922 C97.5769592,2.68122922 98.0105914,2.5024799 98.3813346,2.14498128 C98.7454521,1.78086386 98.9738528,1.33068467 99.0665368,0.794443729 L100.059586,0.794443729 L100.059586,0.794443729 Z M97.6762656,0.64547897 C97.6762656,1.07580528 97.4611059,1.29096844 97.0307866,1.29096844 C96.6004673,1.29096844 96.3853076,1.07580528 96.3853076,0.64547897 C96.3853076,0.215159657 96.6004673,-1.77635684e-15 97.0307866,-1.77635684e-15 C97.4611059,-1.77635684e-15 97.6762656,0.215159657 97.6762656,0.64547897 Z" id="wikipedia-tagline-dty" fill="#000000" fill-rule="nonzero"></path>
    </g>
</svg>

<svg xmlns="http://www.w3.org/2000/svg" width="120" height="17"><path fill="#000" fill-rule="nonzero" d="M6.316 5.263v2.9c0 .53-.106 1-.318 1.41-.205.404-.497.655-.874.755l-.596-.695c.53-.146.795-.643.795-1.49v-2.88H1.946v3.774c0 .55.166.98.497 1.29l3.476 3.278c.53.496.794.894.794 1.191 0 .63-.397 1.093-1.192 1.39l-.794-.694c.596-.093.894-.325.894-.696 0-.218-.133-.45-.398-.695L1.55 10.725C1.152 10.36.953 9.81.953 9.076V5.263H0V4.37h19.206v.894h-5.74v2.681c.457-.794 1.152-1.191 2.085-1.191.662 0 1.208.265 1.639.794.43.523.645 1.152.645 1.887 0 1.317-.629 2.51-1.887 3.575l-.893-.596c1.191-.854 1.787-1.847 1.787-2.979 0-.444-.12-.834-.357-1.172-.239-.344-.55-.516-.934-.516-.483 0-.917.179-1.3.536a2.825 2.825 0 0 0-.785 1.35V14.3h-.993v-2.98c-.51.597-1.172.895-1.986.895a2.489 2.489 0 0 1-1.828-.755 2.489 2.489 0 0 1-.754-1.827c0-.815.288-1.497.864-2.046.582-.556 1.287-.834 2.115-.834.503 0 .834.066.993.198l-.199.993a1.608 1.608 0 0 0-.794-.198c-.543 0-1.01.182-1.4.546-.391.364-.586.81-.586 1.34a1.559 1.559 0 0 0 1.589 1.59c.417 0 .79-.106 1.122-.318.33-.219.619-.543.864-.974V5.263H6.316Zm39.781 0V14.3h-.993V8.143h-3.873a.96.96 0 0 0-.784.387 1.384 1.384 0 0 0-.308.904c0 .669.215 1.35.646 2.046.43.695 1.075 1.403 1.936 2.125l-.596.695c-.993-.84-1.738-1.665-2.234-2.473-.497-.814-.745-1.612-.745-2.393 0-.622.199-1.159.596-1.609.397-.45.894-.675 1.49-.675h3.872V5.263h-8.083V14.3h-.993v-3.178c-.55.662-1.245.993-2.086.993-.82 0-1.522-.255-2.105-.764-.582-.51-.874-1.15-.874-1.917 0-.768.292-1.407.874-1.917.583-.51 1.284-.764 2.105-.764.49 0 .92.132 1.291.397l-.496.794c-.252-.198-.517-.298-.795-.298a2.07 2.07 0 0 0-1.4.517c-.39.344-.586.768-.586 1.271 0 .483.196.887.586 1.211.397.318.864.477 1.4.477.41 0 .788-.122 1.132-.367.351-.252.67-.626.954-1.122v-4.37h-8.72v2.681c0 .51-.161.954-.486 1.331-.324.37-.725.556-1.201.556-.305 0-.53-.06-.676-.179.45.729.964 1.424 1.54 2.086a17.892 17.892 0 0 0 1.936 1.867l-.596.695a18.931 18.931 0 0 1-2.87-3 20.49 20.49 0 0 1-2.194-3.654l.893-.496c.245.596.507 1.043.785 1.34.278.298.573.447.884.447.284 0 .52-.092.705-.278a.97.97 0 0 0 .288-.715v-2.68h-3.794v-.895h39.702v.894H60.04V14.3h-.993v-3.674l-3.575 2.383-.497-.794L58.57 9.83c-.927-.927-1.662-1.39-2.205-1.39-.748 0-1.443.265-2.085.794l-.398-.531v.035h-3.078c-.397 0-.595.132-.595.397v1.092c0 .398-.133.596-.398.596-.298 0-.688-.33-1.171-.993-.477-.662-.715-1.158-.715-1.49 0-.33.231-.496.695-.496h5.263l-.001.44c.753-.559 1.58-.837 2.483-.837.729 0 1.622.53 2.682 1.589V5.263h-12.95ZM30.685 8.54v.993h-2.681l-.497-.993h3.178ZM120 4.37v.893h-1.907v2.284c0 .603-.202 1.119-.605 1.55-.398.423-.89.635-1.48.635-.172 0-.437-.066-.794-.199.423.742.923 1.453 1.499 2.135.583.676 1.241 1.321 1.976 1.937l-.596.695a18.93 18.93 0 0 1-2.87-3 20.49 20.49 0 0 1-2.194-3.654l.894-.496c.172.477.446.86.824 1.152.384.291.804.437 1.26.437a.99.99 0 0 0 .776-.348 1.23 1.23 0 0 0 .317-.844V5.263h-5.879V14.3h-.993V5.263h-2.999V14.3h-.993V5.263h-1.886v4.171c0 .682-.219 1.268-.656 1.758-.437.483-.98.725-1.628.725a2.242 2.242 0 0 1-1.699-.725c-.456-.484-.685-1.07-.685-1.758v-4.17H97.24V14.3h-.993v-4.27H92.97v.794c0 .265-.165.397-.496.397-.212 0-.563-.244-1.053-.734s-.735-.841-.735-1.053c0-.132.04-.232.12-.298.085-.066.211-.1.377-.1h.794v-2.88c0-.277-.086-.512-.258-.704a.801.801 0 0 0-.636-.288c-.238 0-.446.066-.625.198a.58.58 0 0 0-.268.497c0 .265.073.463.218.596.152.132.378.198.675.198v.993c-.516 0-.96-.172-1.33-.516a1.666 1.666 0 0 1-.556-1.271c0-.214.037-.412.112-.596h-1.88V14.3h-.993V8.838h-2.88c-.397 0-.596.133-.596.397v.993c0 .398-.165.596-.496.596-.252 0-.646-.344-1.182-1.033-.536-.688-.804-1.171-.804-1.45 0-.33.231-.496.695-.496h5.263V5.263h-7.746V14.3h-.993V5.263h-2.979V14.3h-.993V7.646h-5.76c-.33 0-.496.1-.496.298 0 .285.178.64.536 1.063.364.417.682.626.953.626.219 0 .533-.067.944-.199.417-.132.731-.199.943-.199.331 0 .596.163.795.487.198.324.297.692.297 1.102 0 .695-.288 1.268-.864 1.718-.569.444-1.24.666-2.015.666.251.556.88.92 1.886 1.092l-.695.695c-.913-.258-1.642-.722-2.184-1.39-.49 0-.927-.12-1.311-.358-.384-.238-.576-.55-.576-.933 0-.252.086-.464.258-.636a.864.864 0 0 1 .636-.258c.31 0 .774.364 1.39 1.092a3.995 3.995 0 0 0 1.728-.546c.503-.31.754-.692.754-1.142 0-.463-.165-.695-.496-.695-.14 0-.39.066-.755.199-.357.132-.635.198-.834.198-.45 0-.96-.317-1.53-.953-.569-.636-.853-1.185-.853-1.648 0-.371.145-.676.437-.914a1.61 1.61 0 0 1 1.052-.358h5.76v-1.39H65.54V4.37h24.072l-.002.425a1.977 1.977 0 0 1 1.472-.623c.529 0 .976.195 1.34.586.364.39.546.857.546 1.4v2.88h3.277V5.263h-2.582V4.37H120Zm-16.643.893h-2.682v4.171c0 .404.133.755.397 1.053.272.29.603.437.994.437.37 0 .678-.146.923-.437.245-.292.368-.643.368-1.053v-4.17ZM100.06.794c-.133.775-.474 1.417-1.023 1.927a2.822 2.822 0 0 1-1.957.755 2.787 2.787 0 0 1-1.946-.755c-.556-.51-.9-1.152-1.033-1.927h.993c.093.537.325.987.695 1.351.365.357.795.536 1.291.536.497 0 .93-.179 1.301-.536.364-.364.593-.814.686-1.35h.993ZM97.676.645c0 .43-.215.646-.645.646-.43 0-.646-.215-.646-.646 0-.43.215-.645.646-.645.43 0 .645.215.645.645Z"/></svg>
